X: 31794
T: Patsy Cawley's
R: jig
M: 6/8
K: Dmajor
|:A|DFA B2 A|dAA BAG|FFF GFG|AFD E2 E|
DFA B2 A|dAA BAG|FGA dAG|1 FDD D2:|2 FDD Dfg||
afd dcd|afd edB|AGF Adf|fed efg|
afd dcd|afd edB|AGF Adf|edc dfg|
afd dcd|afd edB|AGF Adf|fed e2 f|
g3 f3|afd edB|AGF Adf|edc d2||

